!!!Rep U0020
!!!Isim(Name): Akşamlar Oldu Gene
!!!Yore(Region): Şanlıurfa
!!!Makam: Hicaz
!!!Donanim(Key Signature): b- c#
!!!Usul: 4/4, Serbest
**kern	**Dcent
*staff1	*.
=1-	=1-
*clefG2	*.
*k[b-c#]	*.
*M4/4	*.
8d	0
8e	0
8f#	50
8g	0
8a	0
16b-	0
16cc#	0
16b-	0
16a	0
8g	0
=2	=2
8a	0
16b-	0
16cc#	0
16b-	0
16a	0
8g	0
8.a	0
16a	0
16a	0
16a	0
8a	0
=3:!	=3:!
!!linebreak:default
8dd	0
8cc#	0
8dd	0
8b-	0
8cc#	0
8a	0
8b-	0
8g	0
=4	=4
8a	0
16b-	0
16cc#	0
16b-	0
16a	0
8g	0
8.a	0
16a	0
16a	0
16a	0
8a	0
=5	=5
!!linebreak:default
8dd	0
8cc#	0
8dd	0
8b-	0
8cc#	0
8a	0
8b-	0
8g	0
=6	=6
8a	0
16b-	0
16cc#	0
16b-	0
16a	0
8g	0
2a	0
=7	=7
*MX/X	*.
16ddQ	0
16ddQ	0
16cc#Q	0
16ddQ	0
4ddQ;	0
!!linebreak:default
=8	=8
*M4/4	*.
16cc#	0
16dd	0
16dd	0
[16dd	0
16dd]	0
16dd	0
[8dd	0
16dd]	0
16dd	0
8dd	0
8dd	0
8r	.
=9	=9
8cc#	0
8dd	0
16ee	0
16ff#	50
16ee	0
16dd	0
16cc#	0
16dd	0
8cc#	0
16dd	0
16ee	0
16dd	0
16cc#	0
=10	=10
!!linebreak:default
16b-	0
16cc#	0
8b-	0
16cc#	0
16dd	0
16cc#	0
16b-	0
16a	0
16b-	0
8a	0
8b-	0
8a	0
=11:!	=11:!
8cc#	0
16dd	0
16ee	0
16cc#	0
16dd	0
16b-	0
16cc#	0
2a	0
=12	=12
*MX//X	*.
16ddQ	0
16ddQ	0
16cc#Q	0
16ddQ	0
4ddQ;	0
*-	*-
!! Uzun Hava Database
!! 
!! Sertan Senturk, Parag Chordia & Erdal Tugcular
!! Georgia Tech Center for Music Technology, 2011
